X:1
T: Drink of Water
C:
R:Jig
Q:180
K:G
M:6/8
L:1/16
D2|G2B2d2 g2d2c2|B2A2G2 B4G2|B2d2B2 B2d2B2|c2A2A2 A4D2|G2B2d2 g2d2c2|B2A2G2 B4G2|B2c2A2 B4A2G6|G4 d2|
g2f2g2 e2f2g2|f4e2 d4d2|g2f2g2 e2f2g2|a6 d4d2|g2f2g2 b2a2g2|f4e2 d4d2|e2f2g2 a2f2d2|g6 G4D2|
G2B2d2 g2d2c2|B2A2G2 B4G2|B2d2B2 B2d2B2|c2A2A2 A4D2|G2B2d2 g2d2c2|B2A2G2 B4G2|B2c2A2 B4A2|G6 G4d2|
g2f2g2 e2f2g2|f4e2 d4d2|g2f2g2 e2f2g2|a6 d4d2|g2f2g2 b2a2g2|f4e2 d4d2|e2f2g2 a2f2d2|g6 G4||
